other/filmstaden.svg

<?xml version="1.0" encoding="UTF-8" standalone="no"?>
<svg width="48" height="48" viewBox="0 0 48 48" version="1.1" >
    <defs>
        <style>.cls-1{fill:#fff;}</style>
    </defs>
    <path
        class="cls-1"
        d="M 24.000001,0.5 A 23.500001,23.500001 0 0 0 0.5,23.999999 23.500001,23.500001 0 0 0 24.000001,47.5 23.500001,23.500001 0 0 0 47.5,23.999999 23.500001,23.500001 0 0 0 24.000001,0.5 Z m 0,4.8958332 A 18.604167,18.604165 0 0 1 42.604166,23.999999 18.604167,18.604165 0 0 1 24.000001,42.604166 18.604167,18.604165 0 0 1 5.395834,23.999999 18.604167,18.604165 0 0 1 24.000001,5.3958332 Z"
        id="path2317" />
  <path
        class="cls-1"
        d="m 16.813069,12.624837 v 22.750326 h 4.643393 v -9.08789 h 6.89624 v -4.318279 h -6.89624 v -5.0909 h 9.730469 v -4.253257 z"
        id="rect2356" />
</svg>

<?xml version="1.0" encoding="UTF-8"?>
<svg version="1.1" viewBox="0 0 48 48" xmlns="http://www.w3.org/2000/svg">
    <defs>
        <style>.cls-1{fill:#fff;}</style>
    </defs>
    <path class="cls-1" d="m24 0.5a23.5 23.5 0 0 0-23.5 23.5 23.5 23.5 0 0 0 23.5 23.5 23.5 23.5 0 0 0 23.5-23.5 23.5 23.5 0 0 0-23.5-23.5zm0 4.8958a18.604 18.604 0 0 1 18.604 18.604 18.604 18.604 0 0 1-18.604 18.604 18.604 18.604 0 0 1-18.604-18.604 18.604 18.604 0 0 1 18.604-18.604z"/>
    <path class="cls-1" d="m16.813 12.625v22.75h4.6434v-9.0879h6.8962v-4.3183h-6.8962v-5.0909h9.7305v-4.2533z"/>
</svg>
